!!!LAR: Susato, Tielman
!!!OPR: Het Derde Mussyck Boexken, Vol 3
!!!OTL: Reihent&auml;nze Branlen
!!!OMV: 5. Die Post (b)
!!!PPR: Tielman Susato
!!!PPP@EN: Belgium; Antwerp
!!!PDT: 1551
**kern	**kern	**kern	**kern
*Ifltdb	*Ifltdt	*Ifltda	*Ifltds
*>[A,A,B,B]	*>[A,A,B,B]	*>[A,A,B,B]	*>[A,A,B,B]
*>norep[A,B]	*>norep[A,B]	*>norep[A,B]	*>norep[A,B]
*>A	*>A	*>A	*>A
=1-	=1-	=1-	=1-
*clefF4	*clefGv2	*clefGv2	*clefGv2
*k[]	*k[]	*k[]	*k[]
*M6/4	*M6/4	*M6/4	*M6/4
*MM204	*MM204	*MM204	*MM204
2FF/	2F/	2c\	2a\
4FF/	4F/	4c\	4a\
2C/	2G/	2c\	2g\
4C/	4A/	4c\	4e\
=2	=2	=2	=2
2D\	2F/	2A/	2f\
4GG/	4G/	4B\	4d\
2C/	2E/	2c\	2e\
4C/	4E/	4c\	4e\
=3	=3	=3	=3
2FF/	2F/	2c\	2a\
4FF/	4F/	4c\	4a\
2C/	2G/	2c\	2g\
4C/	4A/	4c\	4e\
=4	=4	=4	=4
2D\	2F/	2A/	2f\
4D\	4F/	4A/	4f\
2AA/	2.A/	2c#\	2e\
4AA/	.	4c#\	4e\
=5:|!|:	=5:|!|:	=5:|!|:	=5:|!|:
*>B	*>B	*>B	*>B
2D\	2F/	2A/	2d\
4AA/	4E/	4A/	4c\
4D\	2F/	2A/	2d\
4F\	.	.	.
4E\	4G/	8B\L	4e\
.	.	8c\J	.
=6	=6	=6	=6
2D\	2A/	2d\	2f\
4D\	4F/	4A/	4d\
2C/	2G/	2c\	2e\
4C/	4G/	4c\	4e\
=7	=7	=7	=7
2D\	2F/	2A/	2d\
4AA/	4E/	4A/	4c\
4D\	2F/	2A/	2d\
4F\	.	.	.
4E\	4G/	8B\L	4e\
.	.	8c\J	.
=8	=8	=8	=8
2D\	2A/	2d\	2f\
4D\	4F/	4A/	4f\
2C/	2G/	2c\	2e\
4C/	4G/	4c\	4e\
==:|!	==:|!	==:|!	==:|!
*-	*-	*-	*-
!!!ENC: Craig Stuart Sapp
!!!END: 2004/03/20/
